X: 1
T: Alborada
O: Galician, from Liam O'Flynn
R: march
S: Qu\'ebec City workshop, from Betsy Hooper
M: C
L: 1/16
K: D
|:\
F6 G2 A6 d2 | c2e2 d2B2 A8 | F6 G2 A6 d2 | c2e2 d2B2 A8 |\
d4 d2B2 G3A B2d2 | c4 c2A2 F3G A2c2 |
B4 B2G2 E3F G2A2 |\
[1 F8 F4 FEFG :|[2 F4 ABAB A4 FAFA ||\
d4 ABAB A4 F2A2 | d4 dcBc dcBc dcBc |
dedc BcdB cdcB ABcA | BcBA GABG ABAG FGAF | GAGF EFGE FGFE DEFD | EFED CDEC D4 F2A2 ||
|:\
d4 dedc d2A2 F2A2 | d4 dedc d2A2 F2A2 | G4 GFEG F3B A3d | c3B AGFE D4 F2A2 :|
|:\
A3F DEFG E3F G4 | GAGF EFGE F3A D2F2 | A3F DEFG E3F G4 | GAGF EDEF D8 :|
